X: 3224
T: The NIGHT CAP
%R: jig
B: James Kerr "Merry Melodies" v.3 p.26 #224
Z: 2016 John Chambers <jc:trillian.mit.edu>
M: 6/8
L: 1/8
K: A
[|\
vc2vc cBc | A2E E2C |\
A,CE A2c | B2e e2d |\
c2c cBc | A2E E2A |\
FBA GcB | A3- A2e |:\
e2c cde | f2a a3 |\
[1 e2c cBA | GBA GFE :|\
[2 efe dcB | A3- A2z |]

%%sep 1 1 500
%%sep 1 1 500

